X: 39652
T: Templehouse, The
R: reel
M: 4/4
K: Eminor
|EFGA BE E2|D2 FD AD D2|EFGA BAB^c|dBAc BEED|
EFGA BE E2|D2 (3FED AD D2|EFGA BAB^c|dBAc Beef||
g2ef gfeg|f2df afdf|gfef gfed|B2Ac Be e2|
gfef gfeg|f2df afdf|edef gfed|B2Ac BEED||

